Numix/64x64/categories/applications-chat.svg

<?xml version="1.0" encoding="UTF-8" standalone="no"?>
<svg
   xmlns:dc="http://purl.org/dc/elements/1.1/"
   xmlns:cc="http://creativecommons.org/ns#"
   xmlns:rdf="http://www.w3.org/1999/02/22-rdf-syntax-ns#"
   xmlns:svg="http://www.w3.org/2000/svg"
   xmlns="http://www.w3.org/2000/svg"
   xmlns:sodipodi="http://sodipodi.sourceforge.net/DTD/sodipodi-0.dtd"
   xmlns:inkscape="http://www.inkscape.org/namespaces/inkscape"
   width="64"
   height="64"
   viewBox="0 0 64 64"
   id="svg2"
   version="1.1"
   inkscape:version="0.91 r"
   sodipodi:docname="applications-chat.svg">
  <metadata
     id="metadata14">
    <rdf:RDF>
      <cc:Work
         rdf:about="">
        <dc:format>image/svg+xml</dc:format>
        <dc:type
           rdf:resource="http://purl.org/dc/dcmitype/StillImage" />
      </cc:Work>
    </rdf:RDF>
  </metadata>
  <defs
     id="defs12" />
  <sodipodi:namedview
     pagecolor="#ffffff"
     bordercolor="#666666"
     borderopacity="1"
     objecttolerance="10"
     gridtolerance="10"
     guidetolerance="10"
     inkscape:pageopacity="0"
     inkscape:pageshadow="2"
     inkscape:window-width="1920"
     inkscape:window-height="1056"
     id="namedview10"
     showgrid="false"
     inkscape:zoom="3.6875"
     inkscape:cx="32"
     inkscape:cy="32"
     inkscape:window-x="0"
     inkscape:window-y="24"
     inkscape:window-maximized="1"
     inkscape:current-layer="svg2" />
  <g
     style="fill:#8ccd7c"
     id="g4"
     transform="translate(0.3339845,0.33398437)">
    <path
       d="m 18.5625,20.066406 c -6.425781,0 -11.636719,5.238282 -11.636719,11.699219 0,0.402344 0.00781,0.800781 0.046875,1.191406 0.097656,2.503907 -0.046875,6.125 2.863282,14.902344 2.476562,7.464844 4.363281,7.308594 4.363281,7.308594 l 2.902343,-1.464844 c 0,0 -1.449218,-2.921875 -1.449218,-5.84375 0,-1.40625 0.332031,-3.140625 0.683594,-4.570313 0.714843,0.136719 1.46875,0.179688 2.226562,0.179688 6.417969,0 11.625,-5.238281 11.625,-11.703125 0,-6.460937 -5.207031,-11.699219 -11.625,-11.699219 z"
       id="path6"
       inkscape:connector-curvature="0" />
    <path
       d="m 44.773438,43.269531 c 6.425781,0 11.632812,-5.242187 11.632812,-11.699219 0,-0.40625 -0.0078,-0.800781 -0.04687,-1.191406 -0.09766,-2.507812 0.04687,-6.128906 -2.863281,-14.902344 -2.472656,-7.46875 -4.363282,-7.3125 -4.363282,-7.3125 l -2.902343,1.464844 c 0,0 1.453125,2.921875 1.453125,5.847656 0,1.40625 -0.332032,3.136719 -0.683594,4.570313 -0.71875,-0.136719 -1.472656,-0.183594 -2.226562,-0.183594 -6.421876,0 -11.628907,5.242188 -11.628907,11.707031 0,6.457032 5.207031,11.699219 11.628907,11.699219 z"
       id="path8"
       inkscape:connector-curvature="0" />
  </g>
</svg>

<svg width="64" xmlns="http://www.w3.org/2000/svg" height="64" viewBox="0 0 64 64" xmlns:xlink="http://www.w3.org/1999/xlink">
<g style="fill:#8ccd7c">
<path d="M 18.5625 20.066406 C 12.136719 20.066406 6.925781 25.304688 6.925781 31.765625 C 6.925781 32.167969 6.933594 32.566406 6.972656 32.957031 C 7.070312 35.460938 6.925781 39.082031 9.835938 47.859375 C 12.3125 55.324219 14.199219 55.167969 14.199219 55.167969 L 17.101562 53.703125 C 17.101562 53.703125 15.652344 50.78125 15.652344 47.859375 C 15.652344 46.453125 15.984375 44.71875 16.335938 43.289062 C 17.050781 43.425781 17.804688 43.46875 18.5625 43.46875 C 24.980469 43.46875 30.1875 38.230469 30.1875 31.765625 C 30.1875 25.304688 24.980469 20.066406 18.5625 20.066406 Z "/>
<path d="M 44.773438 43.269531 C 51.199219 43.269531 56.40625 38.027344 56.40625 31.570312 C 56.40625 31.164062 56.398438 30.769531 56.359375 30.378906 C 56.261719 27.871094 56.40625 24.25 53.496094 15.476562 C 51.023438 8.007812 49.132812 8.164062 49.132812 8.164062 L 46.230469 9.628906 C 46.230469 9.628906 47.683594 12.550781 47.683594 15.476562 C 47.683594 16.882812 47.351562 18.613281 47 20.046875 C 46.28125 19.910156 45.527344 19.863281 44.773438 19.863281 C 38.351562 19.863281 33.144531 25.105469 33.144531 31.570312 C 33.144531 38.027344 38.351562 43.269531 44.773438 43.269531 Z "/>
</g>
</svg>
